Adwaita++/mimetypes/scalable/text-x-octave.svg

<svg height="256" viewBox="0 0 67.73 67.73" width="256" xmlns="http://www.w3.org/2000/svg" xmlns:xlink="http://www.w3.org/1999/xlink">
  <filter id="filter16020-3" color-interpolation-filters="sRGB" height="1.021433" width="1.027265" x="-.013633" y="-.010717">
    <feGaussianBlur stdDeviation="2.0004419"/>
  </filter>
  <g enable-background="new" stroke-width=".25">
    <g enable-background="new" stroke-width=".25" transform="matrix(.13297834 0 0 .13297834 .605824 28.61487660106)">
      <path d="m111.82842-178.55025h200l120.17158 119.671571.005 296.240039c.00031 17.728-14.44878 32.08839-32.17678 32.08839h-288c-17.72799 0-31.999992-14.272-31.999992-32v-384c0-17.728 14.272002-32 31.999992-32z" filter="url(#filter16020-3)" opacity=".4"/>
      <path d="m111.82842-179.67158h200l120.17158 119.67158.005 296.24003c.00031 17.728-14.44878 32.08839-32.17678 32.08839h-288c-17.727992 0-31.999992-14.272-31.999992-32v-384c0-17.728 14.272-32 31.999992-32z" fill="#f6f5f4"/>
      <path d="m311.82842-175.69243v88.000007c0 17.728 14.44211 31.693795 32.17011 31.693795l88.00147-.022223v-3.979149z" opacity=".25"/>
      <path d="m311.82842-179.67158v88.000008c0 17.728 14.44211 31.693795 32.17011 31.693795l88.00147-.022223z" fill="#deddda"/>
    </g>
    <g stroke-width="5.190194" transform="matrix(.13297834 0 0 .13297834 .98879005008 26.8953007079)">
      <path d="m258.22481-55.801604a114.18261 114.18261 0 0 0 -114.18262 114.182622 114.18261 114.18261 0 0 0 114.18262 114.182602 114.18261 114.18261 0 0 0 114.18252-114.182602 114.18261 114.18261 0 0 0 -114.18252-114.182622zm12.97528 25.950595a85.636962 85.636962 0 0 1 85.63688 85.636966 85.636962 85.636962 0 0 1 -85.63688 85.636943 85.636962 85.636962 0 0 1 -85.63694-85.636943 85.636962 85.636962 0 0 1 85.63694-85.636966z" fill="#3584e4"/>
      <g fill="#ff7800">
        <rect height="83.043098" rx="16.608618" width="83.043098" x="133.66223" y="16.85729"/>
        <rect height="51.901928" rx="10.380387" width="51.901928" x="320.50925" y="79.13961"/>
        <rect height="41.521549" rx="8.304309" width="41.521549" x="299.74844" y="-45.425014"/>
      </g>
    </g>
  </g>
</svg>

<?xml version="1.0" encoding="UTF-8" standalone="no"?>
<svg
   xmlns:dc="http://purl.org/dc/elements/1.1/"
   xmlns:cc="http://creativecommons.org/ns#"
   xmlns:rdf="http://www.w3.org/1999/02/22-rdf-syntax-ns#"
   xmlns:svg="http://www.w3.org/2000/svg"
   xmlns="http://www.w3.org/2000/svg"
   xmlns:sodipodi="http://sodipodi.sourceforge.net/DTD/sodipodi-0.dtd"
   xmlns:inkscape="http://www.inkscape.org/namespaces/inkscape"
   width="256"
   height="256"
   version="1.1"
   viewBox="0 0 67.73 67.73"
   id="svg37"
   sodipodi:docname="text-x-octave.svg"
   inkscape:version="0.92.3 (2405546, 2018-03-11)">
  <metadata
     id="metadata41">
    <rdf:RDF>
      <cc:Work
         rdf:about="">
        <dc:format>image/svg+xml</dc:format>
        <dc:type
           rdf:resource="http://purl.org/dc/dcmitype/StillImage" />
        <dc:title />
      </cc:Work>
    </rdf:RDF>
  </metadata>
  <sodipodi:namedview
     pagecolor="#ffffff"
     bordercolor="#666666"
     borderopacity="1"
     objecttolerance="10"
     gridtolerance="10"
     guidetolerance="10"
     inkscape:pageopacity="0"
     inkscape:pageshadow="2"
     inkscape:window-width="1920"
     inkscape:window-height="1009"
     id="namedview39"
     showgrid="false"
     inkscape:zoom="3.6304347"
     inkscape:cx="32.583328"
     inkscape:cy="125"
     inkscape:window-x="0"
     inkscape:window-y="34"
     inkscape:window-maximized="1"
     inkscape:current-layer="g17498" />
  <defs
     id="defs17">
    <linearGradient
       id="linearGradient4226"
       x1="529.655"
       x2="-35.31"
       y1="401.584"
       y2="119.093"
       gradientTransform="matrix(0 -.11988932 .11988589 0 .36278001 292.54831)"
       gradientUnits="userSpaceOnUse">
      <stop
         style="stop-color:#f2f2f2"
         offset="0"
         id="stop2" />
      <stop
         style="stop-color:#f9f9f9"
         offset="1"
         id="stop4" />
    </linearGradient>
    <linearGradient
       id="linearGradient4358"
       x1="88"
       x2="488"
       y1="88"
       y2="488"
       gradientUnits="userSpaceOnUse">
      <stop
         style="stop-color:#000000;stop-opacity:.58823532"
         offset="0"
         id="stop7" />
      <stop
         style="stop-color:#000000;stop-opacity:0"
         offset=".88"
         id="stop9" />
      <stop
         style="stop-color:#000000"
         offset="1"
         id="stop11" />
    </linearGradient>
    <filter
       id="filter4346"
       x="-.01"
       y="-.01"
       width="1.026"
       height="1.022"
       style="color-interpolation-filters:sRGB">
      <feGaussianBlur
         stdDeviation="2.12"
         id="feGaussianBlur14" />
    </filter>
    <filter
       inkscape:collect="always"
       style="color-interpolation-filters:sRGB"
       id="filter16020-3"
       x="-0.013632531"
       width="1.0272651"
       y="-0.010716653"
       height="1.0214334">
      <feGaussianBlur
         inkscape:collect="always"
         stdDeviation="2.0004419"
         id="feGaussianBlur16022-6" />
    </filter>
  </defs>
  <g
     transform="matrix(0.13297834,0,0,0.13297834,0.60582436,28.614877)"
     style="display:inline;stroke-width:0.25;enable-background:new"
     id="g17498">
    <g
       transform="translate(0,-3.4178172e-6)"
       style="display:inline;stroke-width:0.25;enable-background:new"
       id="g17498-7">
      <path
         style="display:inline;opacity:0.4;fill:#000000;fill-opacity:1;stroke:none;stroke-width:0.5;stroke-linejoin:round;stroke-miterlimit:4;stroke-dasharray:none;stroke-opacity:1;filter:url(#filter16020-3);enable-background:new"
         clip-path="none"
         d="m 111.82842,-178.55025 h 200 L 432,-58.878679 432.005,237.36136 c 3.1e-4,17.728 -14.44878,32.08839 -32.17678,32.08839 h -288 c -17.72799,0 -31.999992,-14.272 -31.999992,-32 v -384 c 0,-17.728 14.272002,-32 31.999992,-32 z"
         id="path6869-5"
         inkscape:connector-curvature="0"
         sodipodi:nodetypes="sccssssss" />
      <path
         sodipodi:nodetypes="sccssssss"
         inkscape:connector-curvature="0"
         id="rect2069-3"
         d="m 111.82842,-179.67158 h 200 L 432,-60 l 0.005,296.24003 c 3.1e-4,17.728 -14.44878,32.08839 -32.17678,32.08839 h -288 c -17.727992,0 -31.999992,-14.272 -31.999992,-32 v -384 c 0,-17.728 14.272,-32 31.999992,-32 z"
         clip-path="none"
         style="display:inline;opacity:1;fill:#f6f5f4;fill-opacity:1;stroke:none;stroke-width:0.5;stroke-linejoin:round;stroke-miterlimit:4;stroke-dasharray:none;stroke-opacity:1;enable-background:new" />
      <path
         inkscape:connector-curvature="0"
         style="display:inline;opacity:0.25;vector-effect:none;fill:#000000;fill-opacity:1;stroke:none;stroke-width:0.5;stroke-linecap:butt;stroke-linejoin:round;stroke-miterlimit:4;stroke-dasharray:none;stroke-dashoffset:0;stroke-opacity:1;enable-background:new"
         d="m 311.82842,-175.69243 v 88.000007 c 0,17.728 14.44211,31.693795 32.17011,31.693795 L 432,-56.020851 V -60 Z"
         id="path836"
         sodipodi:nodetypes="cscccc" />
      <path
         sodipodi:nodetypes="csccc"
         id="rect26812-5"
         d="m 311.82842,-179.67158 v 88.000008 c 0,17.728 14.44211,31.693795 32.17011,31.693795 L 432,-60 Z"
         style="display:inline;opacity:1;vector-effect:none;fill:#deddda;fill-opacity:1;stroke:none;stroke-width:0.5;stroke-linecap:butt;stroke-linejoin:round;stroke-miterlimit:4;stroke-dasharray:none;stroke-dashoffset:0;stroke-opacity:1;enable-background:new"
         inkscape:connector-curvature="0" />
    </g>
    <g
       id="g853"
       transform="translate(2.8799125,-12.931251)">
      <path
         inkscape:connector-curvature="0"
         id="path899"
         d="M 258.22481,-55.801604 A 114.18261,114.18261 0 0 0 144.04219,58.381018 114.18261,114.18261 0 0 0 258.22481,172.56362 114.18261,114.18261 0 0 0 372.40733,58.381018 114.18261,114.18261 0 0 0 258.22481,-55.801604 Z m 12.97528,25.950595 a 85.636962,85.636962 0 0 1 85.63688,85.636966 85.636962,85.636962 0 0 1 -85.63688,85.636943 85.636962,85.636962 0 0 1 -85.63694,-85.636943 85.636962,85.636962 0 0 1 85.63694,-85.636966 z"
         style="display:inline;fill:#3584e4;fill-opacity:1;stroke-width:5.19019365;enable-background:new" />
      <rect
         id="rect903"
         ry="16.608618"
         rx="16.608618"
         y="16.85729"
         x="133.66223"
         height="83.043098"
         width="83.043098"
         style="display:inline;fill:#ff7800;fill-opacity:1;stroke-width:5.19019365;enable-background:new" />
      <rect
         id="rect905"
         ry="10.380387"
         rx="10.380387"
         y="79.13961"
         x="320.50925"
         height="51.901928"
         width="51.901928"
         style="display:inline;fill:#ff7800;fill-opacity:1;stroke-width:5.19019365;enable-background:new" />
      <rect
         id="rect907"
         ry="8.3043089"
         rx="8.3043089"
         y="-45.425014"
         x="299.74844"
         height="41.521549"
         width="41.521549"
         style="display:inline;fill:#ff7800;fill-opacity:1;stroke-width:5.19019365;enable-background:new" />
    </g>
  </g>
</svg>
